svg/shroomlightOn.svg

<?xml version="1.0" encoding="UTF-8" standalone="no"?>
<!-- Created with Inkscape (http://www.inkscape.org/) -->

<svg
   width="32"
   height="32"
   viewBox="0 0 8.4666666 8.4666668"
   version="1.1"
   id="svg5"
   inkscape:version="1.2 (dc2aeda, 2022-05-15)"
   sodipodi:docname="shroomlightOn.svg"
   xmlns:inkscape="http://www.inkscape.org/namespaces/inkscape"
   xmlns:sodipodi="http://sodipodi.sourceforge.net/DTD/sodipodi-0.dtd"
   xmlns="http://www.w3.org/2000/svg"
   xmlns:svg="http://www.w3.org/2000/svg"
   xmlns:rdf="http://www.w3.org/1999/02/22-rdf-syntax-ns#"
   xmlns:cc="http://creativecommons.org/ns#">
  <sodipodi:namedview
     id="namedview7"
     pagecolor="#ffffff"
     bordercolor="#111111"
     borderopacity="1"
     inkscape:pageshadow="0"
     inkscape:pageopacity="0"
     inkscape:pagecheckerboard="1"
     inkscape:document-units="mm"
     showgrid="true"
     width="32mm"
     units="px"
     objecttolerance="10000"
     guidetolerance="10000"
     inkscape:snap-perpendicular="true"
     inkscape:snap-tangential="true"
     inkscape:zoom="37.9375"
     inkscape:cx="10.833608"
     inkscape:cy="11.848435"
     inkscape:window-width="2560"
     inkscape:window-height="1301"
     inkscape:window-x="0"
     inkscape:window-y="25"
     inkscape:window-maximized="0"
     inkscape:current-layer="layer1"
     inkscape:showpageshadow="0"
     inkscape:deskcolor="#d1d1d1">
    <inkscape:grid
       type="xygrid"
       id="grid9"
       units="px"
       empspacing="4" />
  </sodipodi:namedview>
  <defs
     id="defs2" />
  <g
     inkscape:label="Layer 1"
     inkscape:groupmode="layer"
     id="layer1">
    <path
       id="path2765"
       style="fill:#000000;stroke:none;stroke-width:0"
       d="m 4.2333333,2.1166667 c -1.1690027,0 -2.1166666,0.9476639 -2.1166666,2.1166666 0,0.2922507 0.2369159,0.5291667 0.5291666,0.5291667 H 3.7041667 V 7.4083333 H 4.7625 V 4.7625 H 5.8208333 C 6.113084,4.7625 6.35,4.525584 6.35,4.2333333 6.35,3.0643306 5.402336,2.1166666 4.2333333,2.1166667 Z"
       sodipodi:nodetypes="sssccccsss" />
    <rect
       style="fill:#000000;stroke:none;stroke-width:0"
       id="rect2742"
       width="1.0583333"
       height="0.52916664"
       x="0.52916664"
       y="3.96875" />
    <rect
       style="fill:#000000;stroke:none;stroke-width:0"
       id="rect2744"
       width="0.52916664"
       height="1.0583333"
       x="3.96875"
       y="0.52916664" />
    <rect
       style="fill:#000000;stroke:none;stroke-width:0"
       id="rect2746"
       width="1.0583333"
       height="0.52916664"
       x="6.8791666"
       y="3.96875" />
    <path
       style="fill:#000000;stroke:none;stroke-width:0.264583px;stroke-linecap:butt;stroke-linejoin:miter;stroke-opacity:1"
       d="M 6.0854166,2.1166666 6.3499999,2.38125 7.1437499,1.5875 6.8791666,1.3229166 l -0.79375,0.79375"
       id="path2748" />
    <path
       style="fill:#000000;stroke:none;stroke-width:0.264583px;stroke-linecap:butt;stroke-linejoin:miter;stroke-opacity:1"
       d="M 2.3812504,2.1166666 2.1166671,2.38125 1.3229171,1.5875 1.5875004,1.3229166 l 0.79375,0.79375"
       id="path2750" />
  </g>
  <metadata
     id="metadata33">
    <rdf:RDF>
      <cc:Work
         rdf:about="">
        <cc:license
           rdf:resource="http://creativecommons.org/licenses/by-sa/4.0/" />
      </cc:Work>
      <cc:License
         rdf:about="http://creativecommons.org/licenses/by-sa/4.0/">
        <cc:permits
           rdf:resource="http://creativecommons.org/ns#Reproduction" />
        <cc:permits
           rdf:resource="http://creativecommons.org/ns#Distribution" />
        <cc:requires
           rdf:resource="http://creativecommons.org/ns#Notice" />
        <cc:requires
           rdf:resource="http://creativecommons.org/ns#Attribution" />
        <cc:permits
           rdf:resource="http://creativecommons.org/ns#DerivativeWorks" />
        <cc:requires
           rdf:resource="http://creativecommons.org/ns#ShareAlike" />
      </cc:License>
    </rdf:RDF>
  </metadata>
</svg>

<svg width="32" height="32" viewBox="0 0 8.467 8.467" xmlns="http://www.w3.org/2000/svg"><path style="fill:#000;stroke:none;stroke-width:0" d="M4.233 2.117a2.117 2.117 0 0 0-2.116 2.116c0 .293.237.53.529.53h1.058v2.645h1.058V4.762h1.059a.53.53 0 0 0 .529-.529 2.117 2.117 0 0 0-2.117-2.116ZM.529 3.969h1.058v.529H.529zM3.969.529h.529v1.058h-.529zM6.879 3.969h1.058v.529H6.879z"/><path style="fill:#000;stroke:none;stroke-width:.264583px;stroke-linecap:butt;stroke-linejoin:miter;stroke-opacity:1" d="m6.085 2.117.265.264.794-.793-.265-.265-.794.794M2.381 2.117l-.264.264-.794-.793.265-.265.793.794"/></svg>
